X:0
T:Mixolydian/Dorian (3-gap, so/re) Hexatonic Scales
M:4/4
L:1/8
K:EbMix
"^E flat"  E2FA Bcde|edcB AFE2||\
K:BbMix
"^B flat"  B2ce fgab|bagf ecB2||
K:FMix
"^F"       F2GB cdef|fedc BGF2||\
K:CMix
"^C"       C2DF GABc|cBAG FDC2||
K:GMix
"^G"       G2Ac defg|gfed cAG2||\
K:DMix
"^D"       D2EG ABcd|dcBA GED2||
K:ADor
"^A"       A2Bd efga|agfe dBA2||\
K:EDor
"^E"       E2FA Bcde|edcB AFE2||
K:BDor
"^B"       B2ce fgab|bagf ecB2||\
K:F#Dor
"^F sharp" F2GB cdef|fedc BGF2|]


2.5. The Lydian/Major Hexatonic Mode
==== ===============================

The LYDIAN/MAJOR HEXATONIC mode omits the fourth, giving an interval
sequence TTm TTS.  In A it's AB^cef^ga.  In sol-fa it's either in the
fa-mode with ti omitted or the do-mode with fa omitted.

